!!!OTL: ACH JOSEPH LIEBER JOSEPH
!!!ARE: Europa, Mitteleuropa, Deutschland, Dillenburg, Eibach
!!!SCT: E0056C
!!!YEM: Copyright 1995, estate of Helmut Schaffrath.
**kern
*ICvox
*Ivox
*M3/4
*k[f#]
*G:
{4g
=1
4g
4d
8b
8cc
=2
4b
4g}
{8b
8cc
=3
4dd
4cc
4b
=4
2a}
{8a
8b
=5
4cc
8cc
8ee
8dd
8cc
=6
8b
8dd
4g}
{4g
=7
4a
4a
4a
=8
2g}
{8a
8b
=9
4cc
8cc
8ee
8dd
8cc
=10
8b
8dd
4g}
{4g
=11
4a
4a
4a
=12
2g}
==
!!!AGN: erzaehlendes Volks - Lied, Sage, Kinds - Mord, Ballade ?
!!!ONB: ESAC (Essen Associative Code) Database: ERK1
!!!AMT: simple triple
!!!AIN: vox
!!!EED: Helmut Schaffrath
!!!EEV: 1.0
*-
